!!!COM: Haydn, Franz Joseph
!!!OPR: String Quartet in D Major
!!!ONM: Opus 33, No. 6
!!!OTL: Affettuoso 
!!!OMV: 3
!!!SCT: H III:42
!!!SCA: Thematisch-bibliographisches Werkevererzeichnis (A. van Hoboken)
!!!YOR: Richault Edition, volume 8
!!!EED: Frances Bennion
!!!ENC: Frances Bennion
!!!CDT: 1732/3/31/-1809/5/31/
!!!OCY: Österreich
!!!YEC: Copyright (c) 1994, 2000 Center for Computer Assisted Research in the Humanities
!!!YEM: Rights to all derivative editions reserved.
!!!YEM: Refer to licensing agreement for further details.
!!!YEN: United States of America
**kern	**kern	**kern	**kern
*k[f#c#]	*k[f#c#]	*k[f#c#]	*k[f#c#]
*D:	*D:	*D:	*D:
*clefF	*clefF	*clefC3	*clefF4
*M3/4	*M3/4	*M3/4	*M3/4
*tb8	*tb8	*tb8	*tb8
=0-	=0-	=0-	=0-
4r	2r	2r	2r
4r	.	.	.
4a	4A	4r	4r
=1	=1	=1	=1
4g	4c#	2.r	4r
4f#	4d	.	4r
4f#	4d	.	4D
=2	=2	=2	=2
2f#	2d	2.r	4C#
.	.	.	4BB
4b	4d	.	4BB
=3	=3	=3	=3
4a	4c#	4r	2.E
4g#	4B	4r	.
4g#	4B	4e	.
=4	=4	=4	=4
2a	2A	4d	2AA
.	.	4c#	.
4g	4r	4B	4r
=5	=5	=5	=5
4f#	4r	4A	4r
4e	4r	4G	4r
4b	4B	4r	4G
=6	=6	=6	=6
4a	4d#	4r	4F#
4g	4e	4r	4E
4ee	4g	4b	4E
=7	=7	=7	=7
4dd	4f#	4a	2A
4cc#	4e	4g	.
4cc#	4e	4e	4AA
=8	=8	=8	=8
4dd	4f#	4d	4D
2r	4r	4r	2r
.	4cc	4a	.
=9	=9	=9	=9
4r	4b	4g	4r
4r	4a	4f#	4r
4bb	4f#	4b	4d#
=10	=10	=10	=10
4aa	4f#	2b	2e
4gg	4g	.	.
4r	4b	4g	4r
=11	=11	=11	=11
4r	4a	4f#	4r
4r	4g	4e	4r
4aa	4e	4a	4c#
=12	=12	=12	=12
4gg	4e	2a	2d
4ff#	4f#	.	.
4ddd	4d	4a	4F#
=13	=13	=13	=13
4ccc#	2.d	4g	2G
4bb	.	4G	.
4aa	.	4A	4A
=14	=14	=14	=14
4aa	4d	4B	4B
8gg	4e	4c#	4c#
8ee	.	.	.
8ff#	4d	4d	4d
8dd	.	.	.
=15	=15	=15	=15
2a	2A	2A	[2.AA
4r	4a	4f#	.
=16	=16	=16	=16
4r	4g	4e	2.AA_
4r	4f#	4d#	.
4b	4f#	4d#	.
=17	=17	=17	=17
4a	4f#	4d#	2.AA_
4g	4g	4e	.
4g	4g	4e	.
=18	=18	=18	=18
2g	4f#	4d	2.AA_
.	4e	4c#	.
4a	4e	4c#	.
=19	=19	=19	=19
4g	4e	4c#	4AA]
4f#	4f#	4d	4r
4f#	4d	4F#	4D
=20	=20	=20	=20
2f#	2d	4E	4C#
.	.	4D	4BB
4b	4d	4r	4BB
=21	=21	=21	=21
4a	4c#	4r	2.E
4g#	4B	4r	.
4g#	4B	4e	.
=22	=22	=22	=22
2a	2A	4d	2.AA
.	.	4c#	.
4g	4r	4B	.
=23	=23	=23	=23
4f#	4r	4A	4r
4e	4r	4G	4r
4b	4B	4r	4G
=24	=24	=24	=24
4a	4d#	4r	4F#
4g	4e	4r	4E
4ee	4g	4b	4E
=25	=25	=25	=25
4dd	4f#	4a	2A
4cc#	4e	4g	.
4cc#	4e	4a	4AA
=26	=26	=26	=26
4dd	4d	4g	4D
2r	2r	4f#	4r
.	.	4r	8c#
.	.	.	8d
=27	=27	=27	=27
4r	4r	2.r	4D
4ff#	4dd	.	8d
.	.	.	8c#
4ff#	4dd	.	8B
.	.	.	8A
=28	=28	=28	=28
4gg	4ee	2.r	4G
4gg	4ee	.	4G
4r	4r	.	8F#
.	.	.	8G
=29	=29	=29	=29
4r	4r	2.r	4AA
4ee	4cc#	.	8A
.	.	.	8G
4ee	4cc#	.	8F#
.	.	.	8E
=30	=30	=30	=30
4ff#	4dd	2.r	4D
4ff#	4dd	.	4D
4r	4r	.	8C#
.	.	.	8D
=31	=31	=31	=31
4r	4r	2.r	4DD
4ddd	4ff#	.	8D
.	.	.	8C#
4ddd	4ff#	.	8BB
.	.	.	8AA
=32	=32	=32	=32
2ddd	2.ee	2b	8GG#
.	.	.	8BB
.	.	.	8E
.	.	.	8G#
4ccc#	.	4a	4A
=33	=33	=33	=33
4bb	4dd	4f#	4D
4aa	4cc#	4e	4E
4gg#	4b	4e	4E
=34	=34	=34	=34
2aa	2a	2A	2AA
8gg#	4r	4r	4r
8aa	.	.	.
=35	=35	=35	=35
4a	2.r	4r	2.r
8bb	.	4r	.
8aa	.	.	.
8gg	.	8dd#	.
8ff#	.	8ee	.
=36	=36	=36	=36
4gg	2.r	4e	2.r
4gg	.	8ee	.
.	.	8dd	.
8ff#	.	8cc#	.
8gg	.	8b	.
=37	=37	=37	=37
4a	2.r	4cc#	2.r
8aa	.	4cc#	.
8gg	.	.	.
8ff#	.	8cc#	.
8ee	.	8dd	.
=38	=38	=38	=38
4ff#	2.r	4d	2.r
4ff#	.	8dd	.
.	.	8cc#	.
8gg	.	8b	.
8ff#	.	8a	.
=39	=39	=39	=39
8bb	2.dd	8g	2.r
8aa	.	8f#	.
8gg	.	8b	.
8ff#	.	8a	.
8bb	.	8g	.
8aa	.	8f#	.
=40	=40	=40	=40
8gg	2.dd	8b	2.r
8ff#	.	8a	.
8bb	.	8g	.
8aa	.	8f#	.
8gg	.	8b	.
8ff#	.	8a	.
=41	=41	=41	=41
8bb	2.dd	8g	2.r
8aa	.	8f#	.
8gg	.	8b	.
8ff#	.	8a	.
8ee	.	8g	.
8dd	.	8g#	.
=42	=42	=42	=42
2a	4a	4a	2.r
.	2r	4A	.
8ccc#	.	4r	.
8ddd	.	.	.
=43	=43	=43	=43
4dd	4r	4r	4r
8ddd	4f#	4d	4d
8ccc#	.	.	.
8bb	4f#	4d	4d
8aa	.	.	.
=44	=44	=44	=44
4gg	4g	4e	4e
4gg	4g	4e	4e
8ff#	4r	4r	4r
8gg	.	.	.
=45	=45	=45	=45
4a	4r	4r	4r
8aa	4e	4c#	4c#
8gg	.	.	.
8ff#	4e	4c#	4c#
8ee	.	.	.
=46	=46	=46	=46
4dd	4f#	4d	4d
4dd	4f#	4d	4d
8cc#	8cc#	8c#	8C#
8dd	8dd	8d	8D
=47	=47	=47	=47
4d	4d	4D	4DD
8c#	8c#	8C#	8CC#
8d	8d	8D	8DD
8e	8e	8E	8EE
8f#	8f#	8F#	8FF#
=48	=48	=48	=48
8g	8g	8G	8GG
8a	8a	8A	8AA
8b	8b	8B	8BB
8cc#	8cc#	8c#	8C#
8dd	8dd	8d	8D
8ee	8ee	8e	8E
=49	=49	=49	=49
4ff#	4ff#	4f#	4F#
4aa	4aa	4a	4A
4cc#	4e	4g	4AA
=50	=50	=50	=50
4dd	4f#	4f#	4D
2r	2r	2r	2r
==	==	==	==
*-	*-	*-	*-
!!!RWG1: This file contains only pitch and duration data.
!!!RWG2: Transposing instruments are not transposed.
!!!RWG3: Spines may have incompatible meters.
!!!RWG4: Durations of rests and tied notes may be interpreted.
!!!RWG: Key is interpreted using the Humdrum key tool.
!!!GTL: 6 Quators ("Jungfernquartette")
!!!AFT: stage1
!!!END: 1997/04/15
!!format changes:
!!content changes:
!!public access: complete
!!!KEY: 1167176672
!!!EMD: Converted from MuseData to Humdrum Dec 16, 2000, by Andreas Kornstaedt using muse2kern.
